X: 17
T: the May Fly
T: Hexham quadrille
T: I'll get wedded in my auld claes
R: jig
M: 6/8
L: 1/8
N: The same version of this tune with the same title is in Joseph Crawhall's tune book, so one was
N: probably copied from the other; Crawhall also has a more standard version called Hexham Quadrille.
Z: 2010 John Chambers <jc:trillian.mit.edu>
B: Anonymous manuscript tune book (1800-1840) p.25
F: http://www.asaplive.com/archive/browse_by_collection.asp
N: The asaplive.com web site is complex, and links to its files don't usually work.
N: This tune seems incomplete; the 2nd part ends after 4 bars, plus a long dash.
N: The ending of the first tune is a bit strange, but there are no flags visible.
N:
K: G
d2 | gfe dBG | BAG E2D | GAB AFD | GAB cge |
age dBG | BAG E2D | GAB AFD | D2 G2 G2 :|
|: e | dBd gfg | ece a2g | fef def | gba gfe |
%%text The last four bars are missing; other versions have something like:
dBd gfg | ece a2g | fed cBA | BGG G2 :|


%%sep 5 1 500

